packages/foundations/assets/icons/functional/images/x_placeholder_24.svg

<svg width="24" height="24" viewBox="0 0 24 24" fill="none" xmlns="http://www.w3.org/2000/svg">
    <g clip-path="url(#clip0_7_382)">
        <path d="M6.71113 5.29289C6.32061 4.90237 5.68745 4.90237 5.29692 5.29289C4.9064 5.68342 4.9064 6.31658 5.29692 6.70711L10.5898 12L5.29692 17.2929C4.9064 17.6834 4.9064 18.3166 5.29692 18.7071C5.68745 19.0976 6.32061 19.0976 6.71113 18.7071L12.004 13.4142L17.2969 18.7071C17.6874 19.0976 18.3206 19.0976 18.7111 18.7071C19.1017 18.3166 19.1017 17.6834 18.7111 17.2929L13.4182 12L18.7111 6.70711C19.1017 6.31658 19.1017 5.68342 18.7111 5.29289C18.3206 4.90237 17.6874 4.90237 17.2969 5.29289L12.004 10.5858L6.71113 5.29289Z" fill="#1A1C1F"/>
        <path fill-rule="evenodd" clip-rule="evenodd" d="M2 3C2 2.44772 2.44772 2 3 2H21C21.5523 2 22 2.44772 22 3V21C22 21.5523 21.5523 22 21 22H3C2.44772 22 2 21.5523 2 21V3ZM3 3H21V21H3V3Z" fill="#1A1C1F"/>
    </g>
    <defs>
        <clipPath id="clip0_7_382">
            <rect width="24" height="24" fill="white"/>
        </clipPath>
    </defs>
</svg>

<svg xmlns="http://www.w3.org/2000/svg" width="24" height="24" fill="none"><g fill="#1A1C1F" clip-path="url(#a)"><path d="M6.711 5.293a1 1 0 0 0-1.414 1.414L10.59 12l-5.293 5.293a1 1 0 1 0 1.414 1.414l5.293-5.293 5.293 5.293a1 1 0 0 0 1.414-1.414L13.418 12l5.293-5.293a1 1 0 1 0-1.414-1.414l-5.293 5.293z"/><path fill-rule="evenodd" d="M2 3a1 1 0 0 1 1-1h18a1 1 0 0 1 1 1v18a1 1 0 0 1-1 1H3a1 1 0 0 1-1-1zm1 0h18v18H3z" clip-rule="evenodd"/></g><defs><clipPath id="a"><path fill="#fff" d="M0 0h24v24H0z"/></clipPath></defs></svg>
